%
(Header)
(Generated by gcodetools from Inkscape.)
(Using default header. To add your own header create file "header" in the output dir.)
M3
(Header end.)
G21 (All units in mm)

(Start cutting path id: path110)
(Change tool to Default tool)

G00 Z5.000000
G00 X360.000000 Y340.000000

G01 Z-0.125000 F100.0(Penetrate)
G03 X356.834634 Y367.052695 Z-0.125000 I-160.730794 J-5.095162 F400.000000
G03 X352.519827 Y379.220737 Z-0.125000 I-45.486509 J-9.280550
G03 X344.541551 Y387.910579 Z-0.125000 I-20.161649 J-10.503306
G03 X337.015079 Y389.801293 Z-0.125000 I-6.620884 J-10.430249
G03 X321.134429 Y382.226907 Z-0.125000 I1.775595 J-24.157837
G03 X302.255395 Y354.196088 Z-0.125000 I76.668096 J-72.009739
G03 X292.821200 Y322.078943 Z-0.125000 I104.743577 J-48.211908
G03 X296.368013 Y291.492839 Z-0.125000 I60.324083 J-8.503423
G03 X303.854544 Y278.901615 Z-0.125000 I41.436310 J16.116042
G03 X316.953644 Y268.200840 Z-0.125000 I35.313717 J29.860585
G03 X332.953005 Y262.323232 Z-0.125000 I27.577102 J50.352644
G03 X360.000000 Y260.000000 Z-0.125000 I23.374615 J113.524788
G00 Z5.000000

(End cutting path id: path110)


(Start cutting path id: path110)
(Change tool to Default tool)

G00 Z5.000000
G00 X360.000000 Y340.000000

G01 Z-0.125000 F100.0(Penetrate)
G03 X356.834634 Y367.052695 Z-0.125000 I-160.730794 J-5.095162 F400.000000
G03 X352.519827 Y379.220737 Z-0.125000 I-45.486509 J-9.280550
G03 X344.541551 Y387.910579 Z-0.125000 I-20.161649 J-10.503306
G03 X337.015079 Y389.801293 Z-0.125000 I-6.620884 J-10.430249
G03 X321.134429 Y382.226907 Z-0.125000 I1.775595 J-24.157837
G03 X302.255395 Y354.196088 Z-0.125000 I76.668096 J-72.009739
G03 X292.821200 Y322.078943 Z-0.125000 I104.743577 J-48.211908
G03 X296.368013 Y291.492839 Z-0.125000 I60.324083 J-8.503423
G03 X303.854544 Y278.901615 Z-0.125000 I41.436310 J16.116042
G03 X316.953644 Y268.200840 Z-0.125000 I35.313717 J29.860585
G03 X332.953005 Y262.323232 Z-0.125000 I27.577102 J50.352644
G03 X360.000000 Y260.000000 Z-0.125000 I23.374615 J113.524788
G00 Z5.000000

(End cutting path id: path110)


(Start cutting path id: path108)
(Change tool to Default tool)

G00 Z5.000000
G00 X360.000000 Y340.000000

G01 Z-0.125000 F100.0(Penetrate)
G03 X358.237811 Y353.028618 Z-0.125000 I-68.699951 J-2.658546 F400.000000
G03 X356.194598 Y357.406671 Z-0.125000 I-11.473717 J-2.688917
G03 X352.713381 Y359.208390 Z-0.125000 I-3.605034 J-2.701517
G03 X348.542020 Y357.901154 Z-0.125000 I-0.184753 J-6.719433
G03 X341.027038 Y349.242540 Z-0.125000 I15.501130 J-21.044246
G03 X331.564206 Y326.316975 Z-0.125000 I107.013004 J-57.586775
G03 X326.944397 Y302.575106 Z-0.125000 I119.617989 J-35.596261
G03 X328.804289 Y281.574308 Z-0.125000 I57.521277 J-5.488505
G03 X338.301692 Y267.168567 Z-0.125000 I27.151601 J7.566890
G03 X360.000000 Y260.000000 Z-0.125000 I20.436593 J25.435633
G00 Z5.000000

(End cutting path id: path108)


(Start cutting path id: path108)
(Change tool to Default tool)

G00 Z5.000000
G00 X360.000000 Y340.000000

G01 Z-0.125000 F100.0(Penetrate)
G03 X358.237811 Y353.028618 Z-0.125000 I-68.699951 J-2.658546 F400.000000
G03 X356.194598 Y357.406671 Z-0.125000 I-11.473717 J-2.688917
G03 X352.713381 Y359.208390 Z-0.125000 I-3.605034 J-2.701517
G03 X348.542020 Y357.901154 Z-0.125000 I-0.184753 J-6.719433
G03 X341.027038 Y349.242540 Z-0.125000 I15.501130 J-21.044246
G03 X331.564206 Y326.316975 Z-0.125000 I107.013004 J-57.586775
G03 X326.944397 Y302.575106 Z-0.125000 I119.617989 J-35.596261
G03 X328.804289 Y281.574308 Z-0.125000 I57.521277 J-5.488505
G03 X338.301692 Y267.168567 Z-0.125000 I27.151601 J7.566890
G03 X360.000000 Y260.000000 Z-0.125000 I20.436593 J25.435633
G00 Z5.000000

(End cutting path id: path108)


(Start cutting path id: path106)
(Change tool to Default tool)

G00 Z5.000000
G00 X360.000000 Y340.000000

G01 Z-0.125000 F100.0(Penetrate)
G03 X356.306427 Y372.273990 Z-0.125000 I-195.046437 J-5.973596 F400.000000
G03 X351.147517 Y387.367002 Z-0.125000 I-59.383515 J-11.869569
G03 X341.593677 Y398.679742 Z-0.125000 I-27.904096 J-13.875001
G03 X332.710448 Y401.714110 Z-0.125000 I-9.338165 J-12.817658
G03 X313.503168 Y394.406317 Z-0.125000 I-0.771103 J-26.868703
G03 X291.310285 Y364.607290 Z-0.125000 I73.243466 J-77.711822
G03 X280.096485 Y329.342892 Z-0.125000 I105.490087 J-52.960166
G03 X284.254980 Y295.196824 Z-0.125000 I63.369778 J-9.608736
G03 X293.033406 Y281.281480 Z-0.125000 I44.938510 J18.622652
G03 X308.748983 Y269.164377 Z-0.125000 I40.917032 J36.818450
G03 X327.708992 Y262.598299 Z-0.125000 I32.414221 J62.941119
G03 X360.000000 Y260.000000 Z-0.125000 I27.811081 J143.677706
G00 Z5.000000

(End cutting path id: path106)


(Start cutting path id: path106)
(Change tool to Default tool)

G00 Z5.000000
G00 X360.000000 Y340.000000

G01 Z-0.125000 F100.0(Penetrate)
G03 X356.306427 Y372.273990 Z-0.125000 I-195.046437 J-5.973596 F400.000000
G03 X351.147517 Y387.367002 Z-0.125000 I-59.383515 J-11.869569
G03 X341.593677 Y398.679742 Z-0.125000 I-27.904096 J-13.875001
G03 X332.710448 Y401.714110 Z-0.125000 I-9.338165 J-12.817658
G03 X313.503168 Y394.406317 Z-0.125000 I-0.771103 J-26.868703
G03 X291.310285 Y364.607290 Z-0.125000 I73.243466 J-77.711822
G03 X280.096485 Y329.342892 Z-0.125000 I105.490087 J-52.960166
G03 X284.254980 Y295.196824 Z-0.125000 I63.369778 J-9.608736
G03 X293.033406 Y281.281480 Z-0.125000 I44.938510 J18.622652
G03 X308.748983 Y269.164377 Z-0.125000 I40.917032 J36.818450
G03 X327.708992 Y262.598299 Z-0.125000 I32.414221 J62.941119
G03 X360.000000 Y260.000000 Z-0.125000 I27.811081 J143.677706
G00 Z5.000000

(End cutting path id: path106)


(Start cutting path id: path104)
(Change tool to Default tool)

G00 Z5.000000
G00 X360.000000 Y340.000000

G01 Z-0.125000 F100.0(Penetrate)
G03 X358.128517 Y354.139894 Z-0.125000 I-75.965267 J-2.860573 F400.000000
G03 X355.905045 Y359.125502 Z-0.125000 I-13.802133 J-3.166834
G03 X352.043092 Y361.426016 Z-0.125000 I-4.506117 J-3.172720
G03 X347.633759 Y360.414712 Z-0.125000 I-0.786991 J-6.686785
G03 X339.500219 Y351.893849 Z-0.125000 I13.298948 J-20.836778
G03 X329.254830 Y328.513698 Z-0.125000 I102.140354 J-58.693690
G03 X324.251980 Y304.115614 Z-0.125000 I116.445812 J-36.589284
G03 X326.248486 Y282.355835 Z-0.125000 I57.103395 J-5.732125
G03 X336.338553 Y267.564744 Z-0.125000 I27.693396 J8.054532
G03 X360.000000 Y260.000000 Z-0.125000 I22.287392 J28.924606
G00 Z5.000000

(End cutting path id: path104)


(Start cutting path id: path104)
(Change tool to Default tool)

G00 Z5.000000
G00 X360.000000 Y340.000000

G01 Z-0.125000 F100.0(Penetrate)
G03 X358.128517 Y354.139894 Z-0.125000 I-75.965267 J-2.860573 F400.000000
G03 X355.905045 Y359.125502 Z-0.125000 I-13.802133 J-3.166834
G03 X352.043092 Y361.426016 Z-0.125000 I-4.506117 J-3.172720
G03 X347.633759 Y360.414712 Z-0.125000 I-0.786991 J-6.686785
G03 X339.500219 Y351.893849 Z-0.125000 I13.298948 J-20.836778
G03 X329.254830 Y328.513698 Z-0.125000 I102.140354 J-58.693690
G03 X324.251980 Y304.115614 Z-0.125000 I116.445812 J-36.589284
G03 X326.248486 Y282.355835 Z-0.125000 I57.103395 J-5.732125
G03 X336.338553 Y267.564744 Z-0.125000 I27.693396 J8.054532
G03 X360.000000 Y260.000000 Z-0.125000 I22.287392 J28.924606
G00 Z5.000000

(End cutting path id: path104)


(Start cutting path id: path102)
(Change tool to Default tool)

G00 Z5.000000
G00 X360.000000 Y340.000000

G01 Z-0.125000 F100.0(Penetrate)
G03 X354.973893 Y385.407786 Z-0.125000 I-281.371766 J-8.162481 F400.000000
G03 X347.693383 Y407.871330 Z-0.125000 I-95.289803 J-18.472156
G03 X334.245776 Y425.745857 Z-0.125000 I-48.731187 J-22.666303
G03 X321.875595 Y431.698934 Z-0.125000 I-17.039535 J-19.578424
G03 X294.078878 Y425.077375 Z-0.125000 I-6.378662 J-34.877798
G03 X263.761203 Y390.812514 Z-0.125000 I70.304387 J-92.750607
G03 X248.092134 Y347.599015 Z-0.125000 I111.813719 J-64.990803
G03 X253.766210 Y304.519837 Z-0.125000 I72.431400 J-12.373126
G03 X265.770079 Y287.246491 Z-0.125000 I54.507364 J25.071495
G03 X288.097670 Y271.589620 Z-0.125000 I55.256427 J55.050172
G03 X314.519065 Y263.285238 Z-0.125000 I44.649780 J95.875051
G03 X360.000000 Y260.000000 Z-0.125000 I38.931006 J222.499692
G00 Z5.000000

(End cutting path id: path102)


(Start cutting path id: path102)
(Change tool to Default tool)

G00 Z5.000000
G00 X360.000000 Y340.000000

G01 Z-0.125000 F100.0(Penetrate)
G03 X354.973893 Y385.407786 Z-0.125000 I-281.371766 J-8.162481 F400.000000
G03 X347.693383 Y407.871330 Z-0.125000 I-95.289803 J-18.472156
G03 X334.245776 Y425.745857 Z-0.125000 I-48.731187 J-22.666303
G03 X321.875595 Y431.698934 Z-0.125000 I-17.039535 J-19.578424
G03 X294.078878 Y425.077375 Z-0.125000 I-6.378662 J-34.877798
G03 X263.761203 Y390.812514 Z-0.125000 I70.304387 J-92.750607
G03 X248.092134 Y347.599015 Z-0.125000 I111.813719 J-64.990803
G03 X253.766210 Y304.519837 Z-0.125000 I72.431400 J-12.373126
G03 X265.770079 Y287.246491 Z-0.125000 I54.507364 J25.071495
G03 X288.097670 Y271.589620 Z-0.125000 I55.256427 J55.050172
G03 X314.519065 Y263.285238 Z-0.125000 I44.649780 J95.875051
G03 X360.000000 Y260.000000 Z-0.125000 I38.931006 J222.499692
G00 Z5.000000

(End cutting path id: path102)


(Start cutting path id: path100)
(Change tool to Default tool)

G00 Z5.000000
G00 X360.000000 Y340.000000

G01 Z-0.125000 F100.0(Penetrate)
G03 X357.094037 Y364.482526 Z-0.125000 I-143.841521 J-4.659600 F400.000000
G03 X353.194975 Y375.212939 Z-0.125000 I-38.786824 J-8.020194
G03 X346.003757 Y382.609428 Z-0.125000 I-16.545981 J-8.892722
G03 X339.132871 Y383.940427 Z-0.125000 I-5.378644 J-9.365697
G03 X324.859259 Y376.226952 Z-0.125000 I3.208746 J-23.000946
G03 X307.640168 Y349.073987 Z-0.125000 I79.218664 J-69.272867
G03 X299.084342 Y318.502068 Z-0.125000 I105.056325 J-45.884126
G03 X302.327381 Y289.670553 Z-0.125000 I59.040019 J-7.957186
G03 X309.174554 Y277.727576 Z-0.125000 I39.828854 J14.900459
G03 X320.990171 Y267.726799 Z-0.125000 I32.592266 J26.526496
G03 X335.534276 Y262.187049 Z-0.125000 I25.206490 J44.315343
G03 X360.000000 Y260.000000 Z-0.125000 I21.185901 J99.060860
G00 Z5.000000

(End cutting path id: path100)


(Start cutting path id: path100)
(Change tool to Default tool)

G00 Z5.000000
G00 X360.000000 Y340.000000

G01 Z-0.125000 F100.0(Penetrate)
G03 X357.094037 Y364.482526 Z-0.125000 I-143.841521 J-4.659600 F400.000000
G03 X353.194975 Y375.212939 Z-0.125000 I-38.786824 J-8.020194
G03 X346.003757 Y382.609428 Z-0.125000 I-16.545981 J-8.892722
G03 X339.132871 Y383.940427 Z-0.125000 I-5.378644 J-9.365697
G03 X324.859259 Y376.226952 Z-0.125000 I3.208746 J-23.000946
G03 X307.640168 Y349.073987 Z-0.125000 I79.218664 J-69.272867
G03 X299.084342 Y318.502068 Z-0.125000 I105.056325 J-45.884126
G03 X302.327381 Y289.670553 Z-0.125000 I59.040019 J-7.957186
G03 X309.174554 Y277.727576 Z-0.125000 I39.828854 J14.900459
G03 X320.990171 Y267.726799 Z-0.125000 I32.592266 J26.526496
G03 X335.534276 Y262.187049 Z-0.125000 I25.206490 J44.315343
G03 X360.000000 Y260.000000 Z-0.125000 I21.185901 J99.060860
G00 Z5.000000

(End cutting path id: path100)


(Start cutting path id: path98)
(Change tool to Default tool)

G00 Z5.000000
G00 X360.000000 Y340.000000

G01 Z-0.125000 F100.0(Penetrate)
G03 X358.850493 Y346.596229 Z-0.125000 I-27.482321 J-1.390993 F400.000000
G03 X357.831375 Y347.690482 Z-0.125000 I-1.626859 J-0.493456
G03 X356.435399 Y347.393785 Z-0.125000 I-0.469068 J-1.225429
G03 X353.676228 Y343.692533 Z-0.125000 I11.224469 J-11.246569
G03 X349.552209 Y333.889245 Z-0.125000 I48.518624 J-26.179759
G03 X344.618625 Y313.899356 Z-0.125000 I164.952700 J-51.314736
G03 X343.122290 Y274.413831 Z-0.125000 I134.964398 J-24.885700
G03 X360.000000 Y260.000000 Z-0.125000 I16.061193 J1.718374
G00 Z5.000000

(End cutting path id: path98)


(Start cutting path id: path98)
(Change tool to Default tool)

G00 Z5.000000
G00 X360.000000 Y340.000000

G01 Z-0.125000 F100.0(Penetrate)
G03 X358.850493 Y346.596229 Z-0.125000 I-27.482321 J-1.390993 F400.000000
G03 X357.831375 Y347.690482 Z-0.125000 I-1.626859 J-0.493456
G03 X356.435399 Y347.393785 Z-0.125000 I-0.469068 J-1.225429
G03 X353.676228 Y343.692533 Z-0.125000 I11.224469 J-11.246569
G03 X349.552209 Y333.889245 Z-0.125000 I48.518624 J-26.179759
G03 X344.618625 Y313.899356 Z-0.125000 I164.952700 J-51.314736
G03 X343.122290 Y274.413831 Z-0.125000 I134.964398 J-24.885700
G03 X360.000000 Y260.000000 Z-0.125000 I16.061193 J1.718374
G00 Z5.000000

(End cutting path id: path98)


(Start cutting path id: path96)
(Change tool to Default tool)

G00 Z5.000000
G00 X360.000000 Y340.000000

G01 Z-0.125000 F100.0(Penetrate)
G03 X356.559744 Y369.771628 Z-0.125000 I-178.599750 J-5.553484 F400.000000
G03 X351.805310 Y383.462227 Z-0.125000 I-52.683243 J-10.624839
G03 X343.003424 Y393.518943 Z-0.125000 I-24.137419 J-12.245493
G03 X334.773800 Y396.003902 Z-0.125000 I-8.005320 J-11.642003
G03 X317.169803 Y388.569625 Z-0.125000 I0.405190 J-25.519301
G03 X296.556639 Y359.616856 Z-0.125000 I74.641698 J-74.956016
G03 X286.194989 Y325.862021 Z-0.125000 I104.941688 J-50.681490
G03 X290.061158 Y293.421381 Z-0.125000 I61.849892 J-9.079631
G03 X298.221421 Y280.141692 Z-0.125000 I43.227435 J17.415861
G03 X312.681749 Y268.702522 Z-0.125000 I38.221215 J33.456397
G03 X330.222239 Y262.466687 Z-0.125000 I30.093054 J56.860029
G03 X360.000000 Y260.000000 Z-0.125000 I25.686340 J129.113203
G00 Z5.000000

(End cutting path id: path96)


(Start cutting path id: path96)
(Change tool to Default tool)

G00 Z5.000000
G00 X360.000000 Y340.000000

G01 Z-0.125000 F100.0(Penetrate)
G03 X356.559744 Y369.771628 Z-0.125000 I-178.599750 J-5.553484 F400.000000
G03 X351.805310 Y383.462227 Z-0.125000 I-52.683243 J-10.624839
G03 X343.003424 Y393.518943 Z-0.125000 I-24.137419 J-12.245493
G03 X334.773800 Y396.003902 Z-0.125000 I-8.005320 J-11.642003
G03 X317.169803 Y388.569625 Z-0.125000 I0.405190 J-25.519301
G03 X296.556639 Y359.616856 Z-0.125000 I74.641698 J-74.956016
G03 X286.194989 Y325.862021 Z-0.125000 I104.941688 J-50.681490
G03 X290.061158 Y293.421381 Z-0.125000 I61.849892 J-9.079631
G03 X298.221421 Y280.141692 Z-0.125000 I43.227435 J17.415861
G03 X312.681749 Y268.702522 Z-0.125000 I38.221215 J33.456397
G03 X330.222239 Y262.466687 Z-0.125000 I30.093054 J56.860029
G03 X360.000000 Y260.000000 Z-0.125000 I25.686340 J129.113203
G00 Z5.000000

(End cutting path id: path96)


(Start cutting path id: path94)
(Change tool to Default tool)

G00 Z5.000000
G00 X360.000000 Y340.000000

G01 Z-0.125000 F100.0(Penetrate)
G03 X355.817288 Y377.099646 Z-0.125000 I-226.764114 J-6.780375 F400.000000
G03 X349.878642 Y394.899256 Z-0.125000 I-72.459028 J-14.284678
G03 X338.886172 Y408.628456 Z-0.125000 I-35.387336 J-17.068114
G03 X328.730270 Y412.729019 Z-0.125000 I-12.045943 J-15.207409
G03 X306.395166 Y405.666258 Z-0.125000 I-2.903823 J-29.664398
G03 X281.190145 Y374.233765 Z-0.125000 I71.473544 J-83.134974
G03 X268.336360 Y336.053119 Z-0.125000 I107.272721 J-57.368102
G03 X273.054947 Y298.621628 Z-0.125000 I66.529266 J-10.626525
G03 X283.021533 Y283.476085 Z-0.125000 I48.362066 J20.972808
G03 X301.162734 Y270.055288 Z-0.125000 I46.155571 J43.418213
G03 X322.862492 Y262.851291 Z-0.125000 I36.901561 J74.870438
G03 X360.000000 Y260.000000 Z-0.125000 I31.902189 J172.239705
G00 Z5.000000

(End cutting path id: path94)


(Start cutting path id: path94)
(Change tool to Default tool)

G00 Z5.000000
G00 X360.000000 Y340.000000

G01 Z-0.125000 F100.0(Penetrate)
G03 X355.817288 Y377.099646 Z-0.125000 I-226.764114 J-6.780375 F400.000000
G03 X349.878642 Y394.899256 Z-0.125000 I-72.459028 J-14.284678
G03 X338.886172 Y408.628456 Z-0.125000 I-35.387336 J-17.068114
G03 X328.730270 Y412.729019 Z-0.125000 I-12.045943 J-15.207409
G03 X306.395166 Y405.666258 Z-0.125000 I-2.903823 J-29.664398
G03 X281.190145 Y374.233765 Z-0.125000 I71.473544 J-83.134974
G03 X268.336360 Y336.053119 Z-0.125000 I107.272721 J-57.368102
G03 X273.054947 Y298.621628 Z-0.125000 I66.529266 J-10.626525
G03 X283.021533 Y283.476085 Z-0.125000 I48.362066 J20.972808
G03 X301.162734 Y270.055288 Z-0.125000 I46.155571 J43.418213
G03 X322.862492 Y262.851291 Z-0.125000 I36.901561 J74.870438
G03 X360.000000 Y260.000000 Z-0.125000 I31.902189 J172.239705
G00 Z5.000000

(End cutting path id: path94)


(Start cutting path id: path92)
(Change tool to Default tool)

G00 Z5.000000
G00 X360.000000 Y340.000000

G01 Z-0.125000 F100.0(Penetrate)
G03 X358.488724 Y350.445900 Z-0.125000 I-51.889978 J-2.174987 F400.000000
G03 X356.863801 Y353.434168 Z-0.125000 I-6.601676 J-1.653854
G03 X354.275189 Y354.198578 Z-0.125000 I-1.942108 J-1.811522
G03 X350.641162 Y352.091901 Z-0.125000 I1.853454 J-7.384914
G03 X344.528634 Y343.047277 Z-0.125000 I23.030222 J-22.152051
G03 X336.901559 Y321.239981 Z-0.125000 I122.352889 J-55.030205
G03 X335.023181 Y280.418227 Z-0.125000 I97.592795 J-24.944741
G03 X360.000000 Y260.000000 Z-0.125000 I23.960678 J3.824465
G00 Z5.000000

(End cutting path id: path92)


(Start cutting path id: path92)
(Change tool to Default tool)

G00 Z5.000000
G00 X360.000000 Y340.000000

G01 Z-0.125000 F100.0(Penetrate)
G03 X358.488724 Y350.445900 Z-0.125000 I-51.889978 J-2.174987 F400.000000
G03 X356.863801 Y353.434168 Z-0.125000 I-6.601676 J-1.653854
G03 X354.275189 Y354.198578 Z-0.125000 I-1.942108 J-1.811522
G03 X350.641162 Y352.091901 Z-0.125000 I1.853454 J-7.384914
G03 X344.528634 Y343.047277 Z-0.125000 I23.030222 J-22.152051
G03 X336.901559 Y321.239981 Z-0.125000 I122.352889 J-55.030205
G03 X335.023181 Y280.418227 Z-0.125000 I97.592795 J-24.944741
G03 X360.000000 Y260.000000 Z-0.125000 I23.960678 J3.824465
G00 Z5.000000

(End cutting path id: path92)


(Start cutting path id: path90)
(Change tool to Default tool)

G00 Z5.000000
G00 X360.000000 Y340.000000

G01 Z-0.125000 F100.0(Penetrate)
G03 X365.225439 Y285.007185 Z-0.125000 I378.181538 J8.190290 F400.000000
G03 X374.129237 Y250.943599 Z-0.125000 I197.828552 J33.514460
G03 X389.688715 Y219.698278 Z-0.125000 I138.985221 J49.714764
G03 X404.799004 Y202.213221 Z-0.125000 I73.335852 J48.104040
G03 X445.863267 Y184.702805 Z-0.125000 I46.695082 J52.600407
G03 X474.605220 Y190.253571 Z-0.125000 I4.378428 J54.516962
G03 X486.890111 Y199.174179 Z-0.125000 I-20.419949 J41.040333
G03 X493.164213 Y209.285821 Z-0.125000 I-19.363386 J19.016961
G03 X493.836718 Y220.294467 Z-0.125000 I-19.299722 J6.703861
G03 X487.108826 Y233.167136 Z-0.125000 I-26.682545 J-5.751117
G03 X474.914159 Y242.371720 Z-0.125000 I-32.385633 J-30.225687
G03 X446.150331 Y253.028275 Z-0.125000 I-59.155094 J-115.522036
G03 X415.257326 Y258.113254 Z-0.125000 I-50.108260 J-208.039691
G03 X360.000000 Y260.000000 Z-0.125000 I-44.521957 J-493.812200
G00 Z5.000000

(End cutting path id: path90)


(Start cutting path id: path90)
(Change tool to Default tool)

G00 Z5.000000
G00 X360.000000 Y340.000000

G01 Z-0.125000 F100.0(Penetrate)
G03 X365.225439 Y285.007185 Z-0.125000 I378.181538 J8.190290 F400.000000
G03 X374.129237 Y250.943599 Z-0.125000 I197.828552 J33.514460
G03 X389.688715 Y219.698278 Z-0.125000 I138.985221 J49.714764
G03 X404.799004 Y202.213221 Z-0.125000 I73.335852 J48.104040
G03 X445.863267 Y184.702805 Z-0.125000 I46.695082 J52.600407
G03 X474.605220 Y190.253571 Z-0.125000 I4.378428 J54.516962
G03 X486.890111 Y199.174179 Z-0.125000 I-20.419949 J41.040333
G03 X493.164213 Y209.285821 Z-0.125000 I-19.363386 J19.016961
G03 X493.836718 Y220.294467 Z-0.125000 I-19.299722 J6.703861
G03 X487.108826 Y233.167136 Z-0.125000 I-26.682545 J-5.751117
G03 X474.914159 Y242.371720 Z-0.125000 I-32.385633 J-30.225687
G03 X446.150331 Y253.028275 Z-0.125000 I-59.155094 J-115.522036
G03 X415.257326 Y258.113254 Z-0.125000 I-50.108260 J-208.039691
G03 X360.000000 Y260.000000 Z-0.125000 I-44.521957 J-493.812200
G00 Z5.000000

(End cutting path id: path90)


(Start cutting path id: path88)
(Change tool to Default tool)

G00 Z5.000000
G00 X360.000000 Y340.000000

G01 Z-0.125000 F100.0(Penetrate)
G03 X375.979560 Y256.783697 Z-0.125000 I252.070310 J5.261263 F400.000000
G03 X396.201016 Y226.007654 Z-0.125000 I78.044613 J29.248064
G03 X430.066264 Y208.937525 Z-0.125000 I44.540456 J46.235821
G03 X452.743668 Y211.048706 Z-0.125000 I7.368814 J43.698424
G03 X462.872828 Y216.912405 Z-0.125000 I-11.808585 J32.079147
G03 X467.795148 Y223.657459 Z-0.125000 I-11.109887 J13.276234
G03 X468.345344 Y231.201214 Z-0.125000 I-11.338019 J4.618868
G03 X462.914486 Y240.565405 Z-0.125000 I-18.737397 J-4.610007
G03 X443.640957 Y251.036154 Z-0.125000 I-29.061367 J-30.519532
G03 X360.000000 Y260.000000 Z-0.125000 I-76.745517 J-321.400919
G00 Z5.000000

(End cutting path id: path88)


(Start cutting path id: path88)
(Change tool to Default tool)

G00 Z5.000000
G00 X360.000000 Y340.000000

G01 Z-0.125000 F100.0(Penetrate)
G03 X375.979560 Y256.783697 Z-0.125000 I252.070310 J5.261263 F400.000000
G03 X396.201016 Y226.007654 Z-0.125000 I78.044613 J29.248064
G03 X430.066264 Y208.937525 Z-0.125000 I44.540456 J46.235821
G03 X452.743668 Y211.048706 Z-0.125000 I7.368814 J43.698424
G03 X462.872828 Y216.912405 Z-0.125000 I-11.808585 J32.079147
G03 X467.795148 Y223.657459 Z-0.125000 I-11.109887 J13.276234
G03 X468.345344 Y231.201214 Z-0.125000 I-11.338019 J4.618868
G03 X462.914486 Y240.565405 Z-0.125000 I-18.737397 J-4.610007
G03 X443.640957 Y251.036154 Z-0.125000 I-29.061367 J-30.519532
G03 X360.000000 Y260.000000 Z-0.125000 I-76.745517 J-321.400919
G00 Z5.000000

(End cutting path id: path88)


(Start cutting path id: path86)
(Change tool to Default tool)

G00 Z5.000000
G00 X360.000000 Y340.000000

G01 Z-0.125000 F100.0(Penetrate)
G03 X364.409400 Y293.033823 Z-0.125000 I325.407003 J6.860629 F400.000000
G03 X372.017235 Y263.480802 Z-0.125000 I175.563299 J29.439508
G03 X385.239124 Y236.218370 Z-0.125000 I125.890544 J44.217684
G03 X398.174123 Y220.547194 Z-0.125000 I68.982899 J43.764662
G03 X433.700546 Y203.386489 Z-0.125000 I44.915179 J47.630176
G03 X457.760562 Y206.276539 Z-0.125000 I6.672543 J46.046561
G03 X468.379309 Y212.843873 Z-0.125000 I-13.718448 J34.049822
G03 X473.616963 Y220.359387 Z-0.125000 I-12.913524 J14.582443
G03 X474.195679 Y228.697217 Z-0.125000 I-13.093536 J5.097801
G03 X468.466719 Y238.867615 Z-0.125000 I-20.528232 J-4.864749
G03 X458.223525 Y246.024658 Z-0.125000 I-26.268847 J-26.687525
G03 X433.523256 Y254.511170 Z-0.125000 I-50.321899 J-106.274791
G03 X407.194778 Y258.530578 Z-0.125000 I-42.602072 J-190.818040
G03 X360.000000 Y260.000000 Z-0.125000 I-37.658093 J-450.865807
G00 Z5.000000

(End cutting path id: path86)


(Start cutting path id: path86)
(Change tool to Default tool)

G00 Z5.000000
G00 X360.000000 Y340.000000

G01 Z-0.125000 F100.0(Penetrate)
G03 X364.409400 Y293.033823 Z-0.125000 I325.407003 J6.860629 F400.000000
G03 X372.017235 Y263.480802 Z-0.125000 I175.563299 J29.439508
G03 X385.239124 Y236.218370 Z-0.125000 I125.890544 J44.217684
G03 X398.174123 Y220.547194 Z-0.125000 I68.982899 J43.764662
G03 X433.700546 Y203.386489 Z-0.125000 I44.915179 J47.630176
G03 X457.760562 Y206.276539 Z-0.125000 I6.672543 J46.046561
G03 X468.379309 Y212.843873 Z-0.125000 I-13.718448 J34.049822
G03 X473.616963 Y220.359387 Z-0.125000 I-12.913524 J14.582443
G03 X474.195679 Y228.697217 Z-0.125000 I-13.093536 J5.097801
G03 X468.466719 Y238.867615 Z-0.125000 I-20.528232 J-4.864749
G03 X458.223525 Y246.024658 Z-0.125000 I-26.268847 J-26.687525
G03 X433.523256 Y254.511170 Z-0.125000 I-50.321899 J-106.274791
G03 X407.194778 Y258.530578 Z-0.125000 I-42.602072 J-190.818040
G03 X360.000000 Y260.000000 Z-0.125000 I-37.658093 J-450.865807
G00 Z5.000000

(End cutting path id: path86)


(Start cutting path id: path84)
(Change tool to Default tool)

G00 Z5.000000
G00 X360.000000 Y340.000000

G01 Z-0.125000 F100.0(Penetrate)
G03 X364.239672 Y294.704005 Z-0.125000 I314.424237 J6.583465 F400.000000
G03 X371.577796 Y266.089385 Z-0.125000 I170.957364 J28.593221
G03 X384.313211 Y239.656654 Z-0.125000 I123.212624 J43.080069
G03 X396.795701 Y224.361896 Z-0.125000 I68.161680 J42.887663
G03 X431.162367 Y207.265186 Z-0.125000 I44.643858 J46.650960
G03 X454.255737 Y209.610397 Z-0.125000 I7.157270 J44.395327
G03 X464.532042 Y215.686378 Z-0.125000 I-12.379678 J32.665893
G03 X469.549816 Y222.663435 Z-0.125000 I-11.646633 J13.668925
G03 X470.108648 Y230.446422 Z-0.125000 I-11.861655 J4.763243
G03 X464.587904 Y240.053699 Z-0.125000 I-19.274680 J-4.686176
G03 X454.750588 Y246.786637 Z-0.125000 I-25.016160 J-25.997454
G03 X430.895973 Y254.819712 Z-0.125000 I-48.491964 J-104.564021
G03 X405.516870 Y258.617481 Z-0.125000 I-41.041571 J-187.567325
G03 X360.000000 Y260.000000 Z-0.125000 I-36.221579 J-442.557704
G00 Z5.000000

(End cutting path id: path84)


(Start cutting path id: path84)
(Change tool to Default tool)

G00 Z5.000000
G00 X360.000000 Y340.000000

G01 Z-0.125000 F100.0(Penetrate)
G03 X364.239672 Y294.704005 Z-0.125000 I314.424237 J6.583465 F400.000000
G03 X371.577796 Y266.089385 Z-0.125000 I170.957364 J28.593221
G03 X384.313211 Y239.656654 Z-0.125000 I123.212624 J43.080069
G03 X396.795701 Y224.361896 Z-0.125000 I68.161680 J42.887663
G03 X431.162367 Y207.265186 Z-0.125000 I44.643858 J46.650960
G03 X454.255737 Y209.610397 Z-0.125000 I7.157270 J44.395327
G03 X464.532042 Y215.686378 Z-0.125000 I-12.379678 J32.665893
G03 X469.549816 Y222.663435 Z-0.125000 I-11.646633 J13.668925
G03 X470.108648 Y230.446422 Z-0.125000 I-11.861655 J4.763243
G03 X464.587904 Y240.053699 Z-0.125000 I-19.274680 J-4.686176
G03 X454.750588 Y246.786637 Z-0.125000 I-25.016160 J-25.997454
G03 X430.895973 Y254.819712 Z-0.125000 I-48.491964 J-104.564021
G03 X405.516870 Y258.617481 Z-0.125000 I-41.041571 J-187.567325
G03 X360.000000 Y260.000000 Z-0.125000 I-36.221579 J-442.557704
G00 Z5.000000

(End cutting path id: path84)


(Start cutting path id: path82)
(Change tool to Default tool)

G00 Z5.000000
G00 X360.000000 Y340.000000

G01 Z-0.125000 F100.0(Penetrate)
G03 X375.423531 Y259.350182 Z-0.125000 I245.153165 J5.083560 F400.000000
G03 X395.033346 Y229.239111 Z-0.125000 I77.110039 J28.776889
G03 X427.911952 Y212.219320 Z-0.125000 I44.364044 J45.434746
G03 X449.774710 Y213.872837 Z-0.125000 I7.790117 J42.360434
G03 X459.616110 Y219.319075 Z-0.125000 I-10.698840 J30.947766
G03 X464.349844 Y225.609232 Z-0.125000 I-10.074678 J12.508114
G03 X464.882965 Y232.683551 Z-0.125000 I-10.324821 J4.335326
G03 X459.628719 Y241.570144 Z-0.125000 I-17.689164 J-4.462217
G03 X441.062052 Y251.476188 Z-0.125000 I-27.913391 J-29.964859
G03 X360.000000 Y260.000000 Z-0.125000 I-74.311964 J-316.997189
G00 Z5.000000

(End cutting path id: path82)


(Start cutting path id: path82)
(Change tool to Default tool)

G00 Z5.000000
G00 X360.000000 Y340.000000

G01 Z-0.125000 F100.0(Penetrate)
G03 X375.423531 Y259.350182 Z-0.125000 I245.153165 J5.083560 F400.000000
G03 X395.033346 Y229.239111 Z-0.125000 I77.110039 J28.776889
G03 X427.911952 Y212.219320 Z-0.125000 I44.364044 J45.434746
G03 X449.774710 Y213.872837 Z-0.125000 I7.790117 J42.360434
G03 X459.616110 Y219.319075 Z-0.125000 I-10.698840 J30.947766
G03 X464.349844 Y225.609232 Z-0.125000 I-10.074678 J12.508114
G03 X464.882965 Y232.683551 Z-0.125000 I-10.324821 J4.335326
G03 X459.628719 Y241.570144 Z-0.125000 I-17.689164 J-4.462217
G03 X441.062052 Y251.476188 Z-0.125000 I-27.913391 J-29.964859
G03 X360.000000 Y260.000000 Z-0.125000 I-74.311964 J-316.997189
G00 Z5.000000

(End cutting path id: path82)


(Start cutting path id: path80)
(Change tool to Default tool)

G00 Z5.000000
G00 X360.000000 Y340.000000

G01 Z-0.125000 F100.0(Penetrate)
G03 X373.780784 Y266.940833 Z-0.125000 I224.708281 J4.556312 F400.000000
G03 X391.582782 Y238.788347 Z-0.125000 I74.534724 J27.426715
G03 X421.525792 Y221.902560 Z-0.125000 I44.091966 J43.195461
G03 X441.001183 Y222.218387 Z-0.125000 I9.112737 J38.695758
G03 X450.003126 Y226.423822 Z-0.125000 I-7.508837 J27.810311
G03 X454.168674 Y231.376890 Z-0.125000 I-7.182667 J10.268804
G03 X454.650086 Y237.067225 Z-0.125000 I-7.465845 J3.497154
G03 X449.918992 Y244.539234 Z-0.125000 I-14.651971 J-4.043460
G03 X433.435881 Y252.781669 Z-0.125000 I-24.554474 J-28.501138
G03 X360.000000 Y260.000000 Z-0.125000 I-67.096155 J-305.444384
G00 Z5.000000

(End cutting path id: path80)


(Start cutting path id: path80)
(Change tool to Default tool)

G00 Z5.000000
G00 X360.000000 Y340.000000

G01 Z-0.125000 F100.0(Penetrate)
G03 X373.780784 Y266.940833 Z-0.125000 I224.708281 J4.556312 F400.000000
G03 X391.582782 Y238.788347 Z-0.125000 I74.534724 J27.426715
G03 X421.525792 Y221.902560 Z-0.125000 I44.091966 J43.195461
G03 X441.001183 Y222.218387 Z-0.125000 I9.112737 J38.695758
G03 X450.003126 Y226.423822 Z-0.125000 I-7.508837 J27.810311
G03 X454.168674 Y231.376890 Z-0.125000 I-7.182667 J10.268804
G03 X454.650086 Y237.067225 Z-0.125000 I-7.465845 J3.497154
G03 X449.918992 Y244.539234 Z-0.125000 I-14.651971 J-4.043460
G03 X433.435881 Y252.781669 Z-0.125000 I-24.554474 J-28.501138
G03 X360.000000 Y260.000000 Z-0.125000 I-67.096155 J-305.444384
G00 Z5.000000

(End cutting path id: path80)


(Start cutting path id: path78)
(Change tool to Default tool)

G00 Z5.000000
G00 X360.000000 Y340.000000

G01 Z-0.125000 F100.0(Penetrate)
G03 X373.204619 Y269.606560 Z-0.125000 I217.533697 J4.370443 F400.000000
G03 X390.372194 Y242.138580 Z-0.125000 I73.711327 J26.970929
G03 X419.276421 Y225.294589 Z-0.125000 I44.106248 J42.464390
G03 X437.923097 Y225.146322 Z-0.125000 I9.622426 J37.540438
G03 X446.635290 Y228.912668 Z-0.125000 I-6.418785 J26.807289
G03 X450.596734 Y233.400403 Z-0.125000 I-6.237591 J9.498393
G03 X451.059371 Y238.606872 Z-0.125000 I-6.519875 J3.203133
G03 X446.512452 Y245.580903 Z-0.125000 I-13.611770 J-3.905320
G03 X430.757864 Y253.241837 Z-0.125000 I-23.390921 J-28.073057
G03 X360.000000 Y260.000000 Z-0.125000 I-64.553146 J-302.074499
G00 Z5.000000

(End cutting path id: path78)


(Start cutting path id: path78)
(Change tool to Default tool)

G00 Z5.000000
G00 X360.000000 Y340.000000

G01 Z-0.125000 F100.0(Penetrate)
G03 X373.204619 Y269.606560 Z-0.125000 I217.533697 J4.370443 F400.000000
G03 X390.372194 Y242.138580 Z-0.125000 I73.711327 J26.970929
G03 X419.276421 Y225.294589 Z-0.125000 I44.106248 J42.464390
G03 X437.923097 Y225.146322 Z-0.125000 I9.622426 J37.540438
G03 X446.635290 Y228.912668 Z-0.125000 I-6.418785 J26.807289
G03 X450.596734 Y233.400403 Z-0.125000 I-6.237591 J9.498393
G03 X451.059371 Y238.606872 Z-0.125000 I-6.519875 J3.203133
G03 X446.512452 Y245.580903 Z-0.125000 I-13.611770 J-3.905320
G03 X430.757864 Y253.241837 Z-0.125000 I-23.390921 J-28.073057
G03 X360.000000 Y260.000000 Z-0.125000 I-64.553146 J-302.074499
G00 Z5.000000

(End cutting path id: path78)


(Start cutting path id: path76)
(Change tool to Default tool)

G00 Z5.000000
G00 X360.000000 Y340.000000

G01 Z-0.125000 F100.0(Penetrate)
G03 X365.322101 Y284.056713 Z-0.125000 I384.430220 J8.347533 F400.000000
G03 X374.379340 Y249.458942 Z-0.125000 I200.476556 J33.997695
G03 X390.215585 Y217.742402 Z-0.125000 I140.555592 J50.368356
G03 X405.583524 Y200.042109 Z-0.125000 I73.886420 J48.628856
G03 X447.300657 Y182.486171 Z-0.125000 I46.945998 J53.212045
G03 X476.599967 Y188.356129 Z-0.125000 I4.105545 J55.564854
G03 X489.083839 Y197.554893 Z-0.125000 I-21.239581 J41.895238
G03 X495.479001 Y207.974488 Z-0.125000 I-20.159291 J19.545381
G03 X496.162480 Y219.299705 Z-0.125000 I-20.059914 J6.893852
G03 X489.316427 Y232.492084 Z-0.125000 I-27.422865 J-5.858286
G03 X476.890638 Y241.939944 Z-0.125000 I-33.118342 J-30.662012
G03 X447.645631 Y252.852671 Z-0.125000 I-60.204425 J-116.698588
G03 X416.211944 Y258.063865 Z-0.125000 I-50.997707 J-210.206941
G03 X360.000000 Y260.000000 Z-0.125000 I-45.331508 J-499.142244
G00 Z5.000000

(End cutting path id: path76)


(Start cutting path id: path76)
(Change tool to Default tool)

G00 Z5.000000
G00 X360.000000 Y340.000000

G01 Z-0.125000 F100.0(Penetrate)
G03 X365.322101 Y284.056713 Z-0.125000 I384.430220 J8.347533 F400.000000
G03 X374.379340 Y249.458942 Z-0.125000 I200.476556 J33.997695
G03 X390.215585 Y217.742402 Z-0.125000 I140.555592 J50.368356
G03 X405.583524 Y200.042109 Z-0.125000 I73.886420 J48.628856
G03 X447.300657 Y182.486171 Z-0.125000 I46.945998 J53.212045
G03 X476.599967 Y188.356129 Z-0.125000 I4.105545 J55.564854
G03 X489.083839 Y197.554893 Z-0.125000 I-21.239581 J41.895238
G03 X495.479001 Y207.974488 Z-0.125000 I-20.159291 J19.545381
G03 X496.162480 Y219.299705 Z-0.125000 I-20.059914 J6.893852
G03 X489.316427 Y232.492084 Z-0.125000 I-27.422865 J-5.858286
G03 X476.890638 Y241.939944 Z-0.125000 I-33.118342 J-30.662012
G03 X447.645631 Y252.852671 Z-0.125000 I-60.204425 J-116.698588
G03 X416.211944 Y258.063865 Z-0.125000 I-50.997707 J-210.206941
G03 X360.000000 Y260.000000 Z-0.125000 I-45.331508 J-499.142244
G00 Z5.000000

(End cutting path id: path76)


(Start cutting path id: path74)
(Change tool to Default tool)

G00 Z5.000000
G00 X360.000000 Y340.000000

G01 Z-0.125000 F100.0(Penetrate)
G03 X364.261968 Y294.484587 Z-0.125000 I315.867118 J6.619888 F400.000000
G03 X371.635526 Y265.746690 Z-0.125000 I171.561818 J28.704362
G03 X384.434852 Y239.204936 Z-0.125000 I123.563310 J43.229374
G03 X396.976788 Y223.860750 Z-0.125000 I68.267511 J43.002256
G03 X431.496005 Y206.755822 Z-0.125000 I44.677044 J46.778280
G03 X454.716173 Y209.172420 Z-0.125000 I7.093183 J44.609470
G03 X465.037359 Y215.313005 Z-0.125000 I-12.554364 J32.845859
G03 X470.084126 Y222.360747 Z-0.125000 I-11.811289 J13.788683
G03 X470.645581 Y230.216600 Z-0.125000 I-12.022074 J4.807202
G03 X465.097472 Y239.897880 Z-0.125000 I-19.438723 J-4.709480
G03 X455.206841 Y246.686488 Z-0.125000 I-25.180243 J-26.086883
G03 X431.241125 Y254.779178 Z-0.125000 I-48.732172 J-104.783174
G03 X405.737309 Y258.606063 Z-0.125000 I-41.246547 J-187.985704
G03 X360.000000 Y260.000000 Z-0.125000 I-36.410513 J-443.632968
G00 Z5.000000

(End cutting path id: path74)


(Start cutting path id: path74)
(Change tool to Default tool)

G00 Z5.000000
G00 X360.000000 Y340.000000

G01 Z-0.125000 F100.0(Penetrate)
G03 X364.261968 Y294.484587 Z-0.125000 I315.867118 J6.619888 F400.000000
G03 X371.635526 Y265.746690 Z-0.125000 I171.561818 J28.704362
G03 X384.434852 Y239.204936 Z-0.125000 I123.563310 J43.229374
G03 X396.976788 Y223.860750 Z-0.125000 I68.267511 J43.002256
G03 X431.496005 Y206.755822 Z-0.125000 I44.677044 J46.778280
G03 X454.716173 Y209.172420 Z-0.125000 I7.093183 J44.609470
G03 X465.037359 Y215.313005 Z-0.125000 I-12.554364 J32.845859
G03 X470.084126 Y222.360747 Z-0.125000 I-11.811289 J13.788683
G03 X470.645581 Y230.216600 Z-0.125000 I-12.022074 J4.807202
G03 X465.097472 Y239.897880 Z-0.125000 I-19.438723 J-4.709480
G03 X455.206841 Y246.686488 Z-0.125000 I-25.180243 J-26.086883
G03 X431.241125 Y254.779178 Z-0.125000 I-48.732172 J-104.783174
G03 X405.737309 Y258.606063 Z-0.125000 I-41.246547 J-187.985704
G03 X360.000000 Y260.000000 Z-0.125000 I-36.410513 J-443.632968
G00 Z5.000000

(End cutting path id: path74)


(Start cutting path id: path72)
(Change tool to Default tool)

G00 Z5.000000
G00 X360.000000 Y340.000000

G01 Z-0.125000 F100.0(Penetrate)
G03 X364.881074 Y288.393780 Z-0.125000 I355.916148 J7.629696 F400.000000
G03 X373.238120 Y256.233423 Z-0.125000 I188.411471 J31.793764
G03 X387.811394 Y226.667742 Z-0.125000 I133.420713 J47.390140
G03 X402.003767 Y209.948876 Z-0.125000 I71.428479 J46.251205
G03 X440.737489 Y192.593966 Z-0.125000 I45.862460 J50.457003
G03 X467.497951 Y197.014144 Z-0.125000 I5.345804 J50.851799
G03 X479.076406 Y204.943010 Z-0.125000 I-17.541946 J38.034742
G03 X484.916639 Y213.958092 Z-0.125000 I-16.577918 J17.138938
G03 X485.549853 Y223.839207 Z-0.125000 I-16.630659 J6.026593
G03 X479.243160 Y235.572340 Z-0.125000 I-24.062861 J-5.372538
G03 X467.871960 Y243.911386 Z-0.125000 I-29.787971 J-28.696690
G03 X440.822588 Y253.653953 Z-0.125000 I-55.421447 J-111.451351
G03 X411.855793 Y258.289273 Z-0.125000 I-46.940057 J-200.508759
G03 X360.000000 Y260.000000 Z-0.125000 I-41.632614 J-475.188300
G00 Z5.000000

(End cutting path id: path72)


(Start cutting path id: path72)
(Change tool to Default tool)

G00 Z5.000000
G00 X360.000000 Y340.000000

G01 Z-0.125000 F100.0(Penetrate)
G03 X364.881074 Y288.393780 Z-0.125000 I355.916148 J7.629696 F400.000000
G03 X373.238120 Y256.233423 Z-0.125000 I188.411471 J31.793764
G03 X387.811394 Y226.667742 Z-0.125000 I133.420713 J47.390140
G03 X402.003767 Y209.948876 Z-0.125000 I71.428479 J46.251205
G03 X440.737489 Y192.593966 Z-0.125000 I45.862460 J50.457003
G03 X467.497951 Y197.014144 Z-0.125000 I5.345804 J50.851799
G03 X479.076406 Y204.943010 Z-0.125000 I-17.541946 J38.034742
G03 X484.916639 Y213.958092 Z-0.125000 I-16.577918 J17.138938
G03 X485.549853 Y223.839207 Z-0.125000 I-16.630659 J6.026593
G03 X479.243160 Y235.572340 Z-0.125000 I-24.062861 J-5.372538
G03 X467.871960 Y243.911386 Z-0.125000 I-29.787971 J-28.696690
G03 X440.822588 Y253.653953 Z-0.125000 I-55.421447 J-111.451351
G03 X411.855793 Y258.289273 Z-0.125000 I-46.940057 J-200.508759
G03 X360.000000 Y260.000000 Z-0.125000 I-41.632614 J-475.188300
G00 Z5.000000

(End cutting path id: path72)


(Footer)
M5
G00 X0.0000 Y0.0000
M2
(Using default footer. To add your own footer create file "footer" in the output dir.)
(end)
%